X:433
T: Siji quanlang
N: C1468
O: China,Hunan, YueYang
S: I, 544]
R: Xiaodiao. Qizi quanfu ai laodong]
M: 2/4
L: 1/32
K: D
z4e2d2A4A4 | A4F4z4
e2d2 | d4e8d4 | d16- | d4e2d2e4d2B2 |
z2F2F2A2A2d2F4- | F4A2B2A2d2A4- | A2B2F4D8- | D16 |
z2d2f2e2d3ed2e2 | e8d2e2e4 | d12e4 | e2f2d4A4A2F2 |
z8A2d2A2F2 | A2F6A2A2A2e2 | d16- | d4e4
z4F2A2 | A2B2A4A4A4 | F4D8F4 |
A4F8F4 | A8A4A2F2 | F4E2F2D8- | D16 |
z8e2d2d2e2 | e8
e2d2d2e2 | e8e2d2d4- | d16- | d4e2d2e4d2B2 |
z2F2F2A2A2d2F4- | F4A2B2A2d2A4- | A2B2F4D8- | D16 |
z4d2e2d2e2e4 | e8d8- | d2B2e4e4e2f2 | A4A2F2z8 |
z8A2F2A2F2 | A2F6A2A2A2e2 | d16- | d4e4
A2A2D2F2 | D2E2D8F4 | (3A2F2D2F8A4 | d8A6F2 | F4E4D8- | D16

@@@ Tune index: 6434
